X: 1
T: R\'epertoire G\'erard Lajoie
R: reel
M: C|
L: 1/8
K: Bm
cd |:\
"A"e3e efed | cABc "D"A2 F2 | "A"EAAE AEAB |\
[1,3 "Bm"cABc "E7"B2Ac :|[2 "E7"cedB "A"A3c :|[4 "E7"cedB "A7"A2 |]
|: FG |\
"D"AAFA "D7/F#"d3c | "G"B2GB "Em"e2d2 | "A7"cAce agec |\
[1,3 "D"defd "A7"A2 :|[2,4 dfec "D"d2 :|


